public/img/icon-shopping-bag.svg

<svg fill="none" height="24" viewBox="0 0 24 24" width="24" xmlns="http://www.w3.org/2000/svg"><path d="m3 6 3-4h12l3 4m-18 0v14c0 .5304.21071 1.0391.58579 1.4142.37507.3751.88378.5858 1.41421.5858h14c.5304 0 1.0391-.2107 1.4142-.5858s.5858-.8838.5858-1.4142v-14m-18 0h18m-5 4c0 1.0609-.4214 2.0783-1.1716 2.8284-.7501.7502-1.7675 1.1716-2.8284 1.1716s-2.07828-.4214-2.82843-1.1716c-.75014-.7501-1.17157-1.7675-1.17157-2.8284" stroke="#101828" stroke-width="2"/></svg>

<svg width="24" height="24" viewBox="0 0 24 24" fill="none" xmlns="http://www.w3.org/2000/svg">
<path d="M3 6L6 2H18L21 6M3 6V20C3 20.5304 3.21071 21.0391 3.58579 21.4142C3.96086 21.7893 4.46957 22 5 22H19C19.5304 22 20.0391 21.7893 20.4142 21.4142C20.7893 21.0391 21 20.5304 21 20V6M3 6H21M16 10C16 11.0609 15.5786 12.0783 14.8284 12.8284C14.0783 13.5786 13.0609 14 12 14C10.9391 14 9.92172 13.5786 9.17157 12.8284C8.42143 12.0783 8 11.0609 8 10" stroke="#101828" stroke-width="2" strokeLinecap="round" strokeLinejoin="round"/>
</svg>
